!!!!SEGMENT: pl-wn--sd-xvi-qu-273--098_gomolka-mikolaj--nowy-monarsze-moznemu.krn
!!!cenid: 15xx:303
!!!COM: Gomółka, Mikołaj
!!!COM-rismid: pe30013343
!!!CDT: ~1535->1591/04/30
!!!CNT: Polish
!!!GTL: Melodiae na psalterz polski
!!!OTL: XCVIII. Nowy monarsze możnemu
!!!PDT: 1580
!!!AGN: Sacred
!!!SMS-siglum: PL-Wn
!!!SMS-shelfmark: SD XVI.Qu.273
!!!SMS-shelfwork: 098 G
!!!NIFC-rismid:
!!!ONB-nifc: Melodiae na psalterz polski
**kern	**text	**kern	**text	**kern	**text	**kern	**text
*part4	*part4	*part3	*part3	*part2	*part2	*part1	*part1
*staff4	*staff4	*staff3	*staff3	*staff2	*staff2	*staff1	*staff1
*clefF4	*	*clefC3	*	*clefC3	*	*clefC1	*
*k[b-]	*	*k[b-]	*	*k[b-]	*	*k[b-]	*
*F:	*	*F:	*	*F:	*	*F:	*
*M4/2	*	*M4/2	*	*M4/2	*	*M4/2	*
*met(C|)	*	*met(C|)	*	*met(C|)	*	*met(C|)	*
=-	=-	=-	=-	=-	=-	=-	=-
1F	No-	1A	No-	1c	No-	1f	No-
2D/	-wy	2A	-wy	4d	-wy	2f	-wy
.	.	.	.	4c	.	.	.
2G	Mo-	2B-	Mo-	4d	Mo-	2g/	Mo-
.	.	.	.	4e	.	.	.
=3-	=3-	=3-	=3-	=3-	=3-	=3-	=3-
4F	-nár-	2c/	-nár-	2f	-nár-	2a	-nár-
4E	.	.	.	.	.	.	.
4D	-ʃᴣe	2c/	-ʃᴣe	2f	-ʃᴣe	2a	-ʃᴣe
4C	.	.	.	.	.	.	.
!	!'ż'	!	!'ż'	!	!'ż'	!	!'ż'
4BB-	moӡ-	2d	moӡ-	2f	moӡ-	2b-	moӡ-
4C	.	.	.	.	.	.	.
4D	-né-	2d	-né-	2f	-né-	2b-	-né-
4E	.	.	.	.	.	.	.
=4-	=4-	=4-	=4-	=4-	=4-	=4-	=4-
2F	-(mu)	2c/	-(mu)	2f	-(mu)	2a	-(mu)
2D/	Rym	2d	Rym	2f	Rym	2f	Rym
2.E-X	ӡácӡ-	2.B-	ӡácӡ-	2.e	ӡácӡ-	2.g/	ӡácӡ-
4E-	-ni-	4B-	-ni-	4d	-ni-	4g/	-ni-
=5-	=5-	=5-	=5-	=5-	=5-	=5-	=5-
2F	-(cie)	2A	-(cie)	2c/	-(cie)	2f	-(cie)
2FF	nie-	2A	nie-	2c/	nie-	2f	nie-
2BB/-	-bie-	2B-	-bie-	2d	-bie-	2f	-bie-
2C	-skie-	2G	-skie-	4c/	-skie-	2e	-skie-
.	.	.	.	4B-	.	.	.
=6-	=6-	=6-	=6-	=6-	=6-	=6-	=6-
1FF	-(mu)	1F	-(mu)	1A	-(mu)	1f	-(mu)
1F	On	1A	On	1f	On	1cc	On
=7-	=7-	=7-	=7-	=7-	=7-	=7-	=7-
2.C	ʃam/	2.G	ʃam/	2.e	ʃam/	2.cc	ʃam/
4C	iá-	4G	iá-	4e	iá-	4cc	iá-
1D	-ťo_bóg	2F	-ťo	2.f	-ťo	2a	-ťo
.	.	2f	bóg	.	.	2a	bóg
.	.	.	.	4e	bóg	.	.
=8-	=8-	=8-	=8-	=8-	=8-	=8-	=8-
!!LO:PB:g=original
2BB-	praw-	2f	praw-	2c	praw-	2.b-	praw-
!	!'ź'	!	!'ź'	!	!'ź'	!	!'ź'
2BB-	-dӡi-	2f	-dӡi-	2c	-dӡi-	.	.
.	.	.	.	.	.	4a	-dӡi-
2C	-wy/	2e	-wy/	2c/	-wy/	2g/	-wy/
2FF	Nie-	2c/	Nie-	2f	Nie-	2a	Nie-
=9-	=9-	=9-	=9-	=9-	=9-	=9-	=9-
1BB-	-po_dob-	2.d	-po-	2.f	-po-	2.b-	-po-
.	.	4c/	-dob-	4e	-dob-	4a	-dob-
2BB-	-né	2B-	-né	2d	-né	2g	-né
2FF	cӡy-	2A	cӡy-	2c/	cӡy-	2f	cӡy-
=10-	=10-	=10-	=10-	=10-	=10-	=10-	=10-
2BB-	-ni	2G	-ni	2d	-ni	2f	-ni
!	!'ź'	!	!'ź'	!	!'ź'	!	!'ź'
2C	dӡi-	2G	dӡi-	4c	dӡi-	2e	dӡi-
.	.	.	.	4B-	.	.	.
!	!	!'ogonek po lewej stronie'	!	!'ogonek po lewej stronie'	!	!	!
!!LO:N:vis=00
1FF/	-wy.	1F/	-wy.	1A/	-wy.	1f/	-wy.
=-	=-	=-	=-	=-	=-	=-	=-
*-	*-	*-	*-	*-	*-	*-	*-
!!!RDF**kern: l = terminal long
!!!system-decoration: s1,s2,s3,s4
!!!ENC:Anna Matuszewska
!!!END:2020-02-17
!!!URL-scan: https://polona.pl/item/melodiae-na-psalterz-polski,Nzk3MTM4ODQ/230 Scan on Polona
!!!IIIF: https://polona.pl/iiif/item/Nzk3MTM4ODQ/manifest.json
